data/playwrite-de-grund.svg

<svg width="141.44" height="24.514" viewBox="0 0 141.44 24.514" xmlns="http://www.w3.org/2000/svg"><path transform="translate(0 18.62) scale(.014 -.014)" d="m176-14q-44 0-44 28v878q0 14 11.5 20.5t33.5 6.5h197q104 0 173.5-23t105-73.5 35.5-133.5q0-79-29.5-135t-78-91.5-107-56.5-116.5-30q-39-5-74.5-7.5t-62.5-3.5v-351q0-14-11-21t-33-7zm44 458q19 1 41.5 2t47 3.5 48.5 5.5q61 11 116 36.5t90 73 35 123.5q0 55-25 88t-75 48-124 15h-154z"/><path transform="translate(10.192 18.62) scale(.014 -.014)" d="m194-17q-52 0-75.5 27t-23.5 76v823q0 13 10.5 19.5t31.5 6.5q22 0 33-6.5t11-19.5v-813q0-20 9-29t22-9q11 0 18.5 3t14.5 8.5 14 10.5q8 6 17 3.5t18-13.5q5-7 7.5-17t-2.5-18q-11-17-28.5-28.5t-37.5-17.5-39-6z"/><path transform="translate(14.476 18.62) scale(.014 -.014)" d="m258-17q-57 0-101 27.5t-69 83.5-25 141q0 52 9.5 96t28.5 79 46 59 62 37 77 13q32 0 66-10.5t64-27.5v5q0 15 11 22t33 7 32.5-6.5 10.5-20.5v-392q0-13 4-21.5t11-12.5 16-4q10 0 16.5 2.5t13 7.5 15.5 12q7 6 16 3.5t18-10.5q9-10 10-21t-4-19q-11-16-28-27t-36.5-17-39.5-6q-23 0-40 5t-29 15.5-18.5 25.5-9.5 34q0 1-1 4.5t-1 7.5q-23-37-49.5-57t-54.5-27.5-54-7.5zm-107 256q0-55 13-94.5t39.5-60.5 66.5-21q29 0 55.5 10t49.5 33 41 60v242q-31 19-60 25.5t-61 6.5q-26 0-48-8t-40-24-30.5-40-19-56-6.5-73z"/><path transform="translate(23.212 18.62) scale(.014 -.014)" d="m474 465-316-874q-4-13-14-19.5t-25-6.5q-28 0-39.5 14t-2.5 36l139 378-188 472q-7 20 4 35t39 15q15 0 25-6t15-20l147-386 133 386q5 14 15 20t25 6q29 0 40-14t3-36z"/><path transform="translate(30.338 18.62) scale(.014 -.014)" d="m229-15q-22 0-32 7t-15 19l-157 454q-7 20 4.5 35t39.5 15q15 0 24-6t13-20l124-380 132 380q5 14 14.5 20t25.5 6q15 0 25-6t14-20l135-380 123 380q5 14 14 20t24 6q29 0 40-14t3-36l-159-454q-4-12-14-19t-32-7-30.5 7.5-12.5 18.5l-130 367-127-367q-4-11-14.5-18.5t-31.5-7.5z"/><path transform="translate(41.622 18.62) scale(.014 -.014)" d="m136-15q-21 0-31.5 6.5t-10.5 19.5v478q0 13 10.5 19.5t31.5 6.5q22 0 33-6.5t11-19.5v-64q15 22 33 39.5t38 29.5 41.5 18.5 43.5 6.5q23 0 44.5-6t32.5-14 14-18-8-30q-7-15-18-20t-27-1q-11 3-23.5 6t-29.5 3q-20 0-39.5-6.5t-38-20-34.5-34.5-29-49v-318q0-13-11-19.5t-33-6.5z"/><path transform="translate(47.852 18.62) scale(.014 -.014)" d="m193-17q-52 0-75.5 27t-23.5 76v403q0 13 10.5 19.5t31.5 6.5q22 0 33-6.5t11-19.5v-393q0-20 9-29t22-9q11 0 18.5 3.5t14 8.5 14.5 11q6 5 16.5 1t16.5-12q8-9 9-19t-5-18q-11-16-27.5-27t-36-17-38.5-6zm-55 686q-28 0-42.5 15.5t-14.5 46.5q0 32 14.5 48t42.5 16q27 0 41-16t14-48q1-31-13.5-46.5t-41.5-15.5z"/><path transform="translate(52.108 18.62) scale(.014 -.014)" d="m243-17q-42 0-69.5 15.5t-41 44-13.5 68.5v309h-78q-15 0-21 9t-6 31q0 23 6 31.5t21 8.5h78v204q0 13 10.5 19.5t31.5 6.5q22 0 33-6.5t11-19.5v-204h126q15 0 21.5-8.5t6.5-31.5q0-22-6.5-31t-21.5-9h-126v-299q0-34 9.5-48.5t34.5-14.5q23 0 39.5 11t34.5 27q12 11 22.5 7.5t19.5-12.5q11-10 11.5-20.5t-5.5-19.5q-17-25-38-40t-44-21.5-46-6.5z"/><path transform="translate(57.54 18.62) scale(.014 -.014)" d="m293-19q-79 0-130 34t-75.5 90-24.5 123 18.5 120.5 52.5 91.5 80.5 58.5 101.5 20.5q49 0 85.5-14.5t57-44 20.5-74.5q0-38-16.5-69t-46.5-54.5-71-39-92-23.5-108-9v70q33 0 67.5 4.5t66.5 13.5 57 23.5 39.5 33.5 14.5 43q0 32-21.5 46t-57.5 14q-33 0-61.5-13t-51-38.5-35-61.5-12.5-82q0-55 17.5-96t49.5-64 77-23q30 0 51 7.5t39.5 23 40.5 37.5q15 15 27.5 15t26.5-11 17-23.5-7-25.5q-25-38-59-60.5t-69.5-32.5-68.5-10z"/><path transform="translate(69.104 18.62) scale(.014 -.014)" d="m176 0q-44 0-44 28v864q0 14 11 20.5t33 6.5h188q117 0 202.5-33.5t141.5-91 83-131.5 27-156q0-92-19-170.5t-58.5-140.5-100.5-106-144.5-67-189.5-23zm44 85h86q86 0 154 17t118 51.5 82 85.5 48 118 16 150q0 70-23 129.5t-69.5 104-113 69-154.5 24.5h-144z"/><path transform="translate(81.746 18.62) scale(.014 -.014)" d="m176 0q-22 0-33 10t-11 30v852q0 14 11 20.5t33 6.5h446q15 0 21-8.5t6-31.5q0-22-6-31t-21-9h-402v-313h336q15 0 21.5-8.5t6.5-31.5q0-22-6.5-31t-21.5-9h-336v-366h402q15 0 21-8.5t6-31.5q0-22-6-31t-21-9z"/><path transform="translate(95.592 18.62) scale(.014 -.014)" d="m468-19q-86 1-156.5 36.5t-121 99.5-78 150.5-27.5 191.5q0 69 12.5 131t36.5 115.5 59 95.5 79 72.5 97 46 114 15.5q47 0 95-10.5t91.5-37.5 78.5-76q9-12 5-21t-16-20q-14-12-24-14t-20 8q-27 28-60 47t-70.5 29-79.5 10q-45 0-84-11.5t-73-34.5-61-56.5-46.5-77-29.5-96.5-10-115q0-93 22-166.5t61.5-124 92-76.5 113.5-26q51 0 92 13t71.5 38.5 52 66.5 32.5 97.5 12 129.5h-237q-15 0-21.5 9t-6.5 31q0 23 6.5 31.5t21.5 8.5h300q15 0 21.5-8.5t6.5-31.5q0-127-27-216.5t-75-145.5-112-82-137-26z"/><path transform="translate(108.33 18.62) scale(.014 -.014)" d="m136-15q-21 0-31.5 6.5t-10.5 19.5v478q0 13 10.5 19.5t31.5 6.5q22 0 33-6.5t11-19.5v-64q15 22 33 39.5t38 29.5 41.5 18.5 43.5 6.5q23 0 44.5-6t32.5-14 14-18-8-30q-7-15-18-20t-27-1q-11 3-23.5 6t-29.5 3q-20 0-39.5-6.5t-38-20-34.5-34.5-29-49v-318q0-13-11-19.5t-33-6.5z"/><path transform="translate(114.56 18.62) scale(.014 -.014)" d="m269-17q-58 0-97 20.5t-58.5 61-19.5 101.5v323q0 13 10.5 19.5t31.5 6.5q22 0 33-6.5t11-19.5v-323q0-35 11-59t33.5-36 55.5-12q28 0 52 9t43.5 24.5 34.5 37.5 25 47v312q0 13 10.5 19.5t32.5 6.5q21 0 32-6.5t11-19.5v-393q0-14 4-23t11.5-13 16.5-4 16.5 3.5 15 9.5 14.5 11q8 6 17.5 3t17.5-14q5-7 7-17t-5-19q-10-15-26-26.5t-35-18.5-39-7q-24 0-41.5 6.5t-29.5 18.5-19 28-9 35l-1 9q-14-22-31.5-39.5t-38.5-30-45.5-19-51.5-6.5z"/><path transform="translate(123.59 18.62) scale(.014 -.014)" d="m539-17q-26 0-45 7t-31 20-17.5 32.5-5.5 43.5v240q0 35-10.5 60.5t-32.5 39-59 13.5q-22 0-44-6t-43-19-39-35-32-54v-314q0-13-11-19.5t-33-6.5q-21 0-31.5 6.5t-10.5 19.5v478q0 13 10.5 19.5t31.5 6.5q22 0 33-6.5t11-19.5v-65q15 21 33 38.5t40 30 46 19.5 51 7q52 0 91.5-19t62-59.5 22.5-106.5v-238q0-13 4-21.5t11.5-12.5 16.5-4 16.5 3 14.5 8.5 14 10.5q8 6 18 2t17-12q8-10 8.5-20t-5.5-19q-11-15-27.5-26t-35.5-16.5-39-5.5z"/><path transform="translate(132.64 18.62) scale(.014 -.014)" d="m258-17q-57 0-101 27.5t-69 83.5-25 141q0 52 10 96t28.5 79 46 59 63.5 37 79 13q30 0 64-9t64-26v425q0 13 11 19.5t32 6.5q22 0 32.5-6.5t10.5-19.5v-813q0-20 8.5-29t22.5-9q9 0 16.5 3t14.5 8 15 11 17.5 2 16.5-12q8-9 9.5-19t-4.5-18q-11-16-28-27t-36.5-17-39.5-6q-38 0-59 14t-29.5 34.5-8.5 41.5q0 1 0 1.5t0 1.5q-24-38-51.5-58t-55.5-27.5-54-7.5zm-107 256q0-55 13-94.5t39.5-60.5 66.5-21q29 0 55.5 10t50 33 42.5 60v238q-31 20-61 28t-62 8q-26 0-48-8t-40-24-30.5-40-19-56-6.5-73z"/></svg>

<?xml version="1.0" encoding="utf-8" ?>
<svg baseProfile="tiny" height="100%" version="1.2" width="100%" xmlns="http://www.w3.org/2000/svg" xmlns:ev="http://www.w3.org/2001/xml-events" xmlns:xlink="http://www.w3.org/1999/xlink"><defs /><g><path d="M176 -14Q132 -14 132 14V892Q132 906 143.5 912.5Q155 919 177 919H374Q478 919 547.5 896.0Q617 873 652.5 822.5Q688 772 688 689Q688 610 658.5 554.0Q629 498 580.5 462.5Q532 427 473.5 406.0Q415 385 357 376Q318 371 282.5 368.5Q247 366 220 365V14Q220 0 209.0 -7.0Q198 -14 176 -14ZM220 444Q239 445 261.5 446.0Q284 447 308.5 449.5Q333 452 357 455Q418 466 473.0 491.5Q528 517 563.0 564.5Q598 612 598 688Q598 743 573.0 776.0Q548 809 498.0 824.0Q448 839 374 839H220Z" transform="translate(0.0, 72) scale(0.072, -0.072)" /><path d="M194 -17Q142 -17 118.5 10.0Q95 37 95 86V909Q95 922 105.5 928.5Q116 935 137 935Q159 935 170.0 928.5Q181 922 181 909V96Q181 76 190.0 67.0Q199 58 212 58Q223 58 230.5 61.0Q238 64 245.0 69.5Q252 75 259 80Q267 86 276.0 83.5Q285 81 294 70Q299 63 301.5 53.0Q304 43 299 35Q288 18 270.5 6.5Q253 -5 233.0 -11.0Q213 -17 194 -17Z" transform="translate(52.416, 72) scale(0.072, -0.072)" /><path d="M258 -17Q201 -17 157.0 10.5Q113 38 88.0 94.0Q63 150 63 235Q63 287 72.5 331.0Q82 375 101.0 410.0Q120 445 147.0 469.0Q174 493 209.0 506.0Q244 519 286 519Q318 519 352.0 508.5Q386 498 416 481V486Q416 501 427.0 508.0Q438 515 460 515Q482 515 492.5 508.5Q503 502 503 488V96Q503 83 507.0 74.5Q511 66 518.0 62.0Q525 58 534 58Q544 58 550.5 60.5Q557 63 563.5 68.0Q570 73 579 80Q586 86 595.0 83.5Q604 81 613 73Q622 63 623.0 52.0Q624 41 619 33Q608 17 591.0 6.0Q574 -5 554.5 -11.0Q535 -17 515 -17Q492 -17 475.0 -12.0Q458 -7 446.0 3.5Q434 14 427.5 29.0Q421 44 418 63Q418 64 417.0 67.5Q416 71 416 75Q393 38 366.5 18.0Q340 -2 312.0 -9.5Q284 -17 258 -17ZM151 239Q151 184 164.0 144.5Q177 105 203.5 84.0Q230 63 270 63Q299 63 325.5 73.0Q352 83 375.0 106.0Q398 129 416 166V408Q385 427 356.0 433.5Q327 440 295 440Q269 440 247.0 432.0Q225 424 207.0 408.0Q189 392 176.5 368.0Q164 344 157.5 312.0Q151 280 151 239Z" transform="translate(74.448, 72) scale(0.072, -0.072)" /><path d="M474 465 158 -409Q154 -422 144.0 -428.5Q134 -435 119 -435Q91 -435 79.5 -421.0Q68 -407 77 -385L216 -7L28 465Q21 485 32.0 500.0Q43 515 71 515Q86 515 96.0 509.0Q106 503 111 489L258 103L391 489Q396 503 406.0 509.0Q416 515 431 515Q460 515 471.0 501.0Q482 487 474 465Z" transform="translate(119.37599999999999, 72) scale(0.072, -0.072)" /><path d="M229 -15Q207 -15 197.0 -8.0Q187 -1 182 11L25 465Q18 485 29.5 500.0Q41 515 69 515Q84 515 93.0 509.0Q102 503 106 489L230 109L362 489Q367 503 376.5 509.0Q386 515 402 515Q417 515 427.0 509.0Q437 503 441 489L576 109L699 489Q704 503 713.0 509.0Q722 515 737 515Q766 515 777.0 501.0Q788 487 780 465L621 11Q617 -1 607.0 -8.0Q597 -15 575 -15Q553 -15 544.5 -7.5Q536 0 532 11L402 378L275 11Q271 0 260.5 -7.5Q250 -15 229 -15Z" transform="translate(156.024, 72) scale(0.072, -0.072)" /><path d="M136 -15Q115 -15 104.5 -8.5Q94 -2 94 11V489Q94 502 104.5 508.5Q115 515 136 515Q158 515 169.0 508.5Q180 502 180 489V425Q195 447 213.0 464.5Q231 482 251.0 494.0Q271 506 292.5 512.5Q314 519 336 519Q359 519 380.5 513.0Q402 507 413 499Q424 491 427.0 481.0Q430 471 419 451Q412 436 401.0 431.0Q390 426 374 430Q363 433 350.5 436.0Q338 439 321 439Q301 439 281.5 432.5Q262 426 243.5 412.5Q225 399 209.0 378.0Q193 357 180 329V11Q180 -2 169.0 -8.5Q158 -15 136 -15Z" transform="translate(214.05599999999998, 72) scale(0.072, -0.072)" /><path d="M193 -17Q141 -17 117.5 10.0Q94 37 94 86V489Q94 502 104.5 508.5Q115 515 136 515Q158 515 169.0 508.5Q180 502 180 489V96Q180 76 189.0 67.0Q198 58 211 58Q222 58 229.5 61.5Q237 65 243.5 70.0Q250 75 258 81Q264 86 274.5 82.0Q285 78 291 70Q299 61 300.0 51.0Q301 41 295 33Q284 17 267.5 6.0Q251 -5 231.5 -11.0Q212 -17 193 -17ZM138 669Q110 669 95.5 684.5Q81 700 81 731Q81 763 95.5 779.0Q110 795 138 795Q165 795 179.0 779.0Q193 763 193 731Q194 700 179.5 684.5Q165 669 138 669Z" transform="translate(246.09599999999998, 72) scale(0.072, -0.072)" /><path d="M243 -17Q201 -17 173.5 -1.5Q146 14 132.5 42.5Q119 71 119 111V420H41Q26 420 20.0 429.0Q14 438 14 460Q14 483 20.0 491.5Q26 500 41 500H119V704Q119 717 129.5 723.5Q140 730 161 730Q183 730 194.0 723.5Q205 717 205 704V500H331Q346 500 352.5 491.5Q359 483 359 460Q359 438 352.5 429.0Q346 420 331 420H205V121Q205 87 214.5 72.5Q224 58 249 58Q272 58 288.5 69.0Q305 80 323 96Q335 107 345.5 103.5Q356 100 365 91Q376 81 376.5 70.5Q377 60 371 51Q354 26 333.0 11.0Q312 -4 289.0 -10.5Q266 -17 243 -17Z" transform="translate(267.984, 72) scale(0.072, -0.072)" /><path d="M293 -19Q214 -19 163.0 15.0Q112 49 87.5 105.0Q63 161 63 228Q63 295 81.5 348.5Q100 402 134.0 440.0Q168 478 214.5 498.5Q261 519 316 519Q365 519 401.5 504.5Q438 490 458.5 460.5Q479 431 479 386Q479 348 462.5 317.0Q446 286 416.0 262.5Q386 239 345.0 223.5Q304 208 253.0 200.0Q202 192 145 191V261Q178 261 212.5 265.5Q247 270 279.0 279.0Q311 288 336.0 302.5Q361 317 375.5 336.0Q390 355 390 379Q390 411 368.5 425.0Q347 439 311 439Q278 439 249.5 426.0Q221 413 198.5 387.5Q176 362 163.5 326.0Q151 290 151 244Q151 189 168.5 148.0Q186 107 218.0 84.0Q250 61 295 61Q325 61 346.0 68.5Q367 76 385.5 91.5Q404 107 426 129Q441 144 453.5 144.0Q466 144 480 133Q494 122 497.0 109.5Q500 97 490 84Q465 46 431.0 23.5Q397 1 361.5 -9.0Q326 -19 293 -19Z" transform="translate(295.91999999999996, 72) scale(0.072, -0.072)" /><path d="M176 0Q132 0 132 28V892Q132 906 143.0 912.5Q154 919 176 919H364Q481 919 566.5 885.5Q652 852 708.0 794.5Q764 737 791.0 663.0Q818 589 818 507Q818 415 799.0 336.5Q780 258 740.5 196.0Q701 134 640.0 90.0Q579 46 495.5 23.0Q412 0 306 0ZM220 85H306Q392 85 460.0 102.0Q528 119 578.0 153.5Q628 188 660.0 239.0Q692 290 708.0 357.0Q724 424 724 507Q724 577 701.0 636.5Q678 696 631.5 740.5Q585 785 518.5 809.5Q452 834 364 834H220Z" transform="translate(355.392, 72) scale(0.072, -0.072)" /><path d="M176 0Q154 0 143.0 10.0Q132 20 132 40V892Q132 906 143.0 912.5Q154 919 176 919H622Q637 919 643.0 910.5Q649 902 649 879Q649 857 643.0 848.0Q637 839 622 839H220V526H556Q571 526 577.5 517.5Q584 509 584 486Q584 464 577.5 455.0Q571 446 556 446H220V80H622Q637 80 643.0 71.5Q649 63 649 40Q649 18 643.0 9.0Q637 0 622 0Z" transform="translate(420.408, 72) scale(0.072, -0.072)" /><path d="M468 -19Q382 -18 311.5 17.5Q241 53 190.5 117.0Q140 181 112.5 267.5Q85 354 85 459Q85 528 97.5 590.0Q110 652 134.0 705.5Q158 759 193.0 801.0Q228 843 272.0 873.5Q316 904 369.0 919.5Q422 935 483 935Q530 935 578.0 924.5Q626 914 669.5 887.0Q713 860 748 811Q757 799 753.0 790.0Q749 781 737 770Q723 758 713.0 756.0Q703 754 693 764Q666 792 633.0 811.0Q600 830 562.5 840.0Q525 850 483 850Q438 850 399.0 838.5Q360 827 326.0 804.0Q292 781 265.0 747.5Q238 714 218.5 670.5Q199 627 189.0 574.0Q179 521 179 459Q179 366 201.0 292.5Q223 219 262.5 168.5Q302 118 354.5 92.0Q407 66 468 66Q519 66 560.0 79.0Q601 92 631.5 117.5Q662 143 683.5 184.0Q705 225 716.0 281.5Q727 338 728 411H491Q476 411 469.5 420.0Q463 429 463 451Q463 474 469.5 482.5Q476 491 491 491H791Q806 491 812.5 482.5Q819 474 819 451Q819 324 792.0 234.5Q765 145 717.0 89.0Q669 33 605.0 7.0Q541 -19 468 -19Z" transform="translate(491.61600000000004, 72) scale(0.072, -0.072)" /><path d="M136 -15Q115 -15 104.5 -8.5Q94 -2 94 11V489Q94 502 104.5 508.5Q115 515 136 515Q158 515 169.0 508.5Q180 502 180 489V425Q195 447 213.0 464.5Q231 482 251.0 494.0Q271 506 292.5 512.5Q314 519 336 519Q359 519 380.5 513.0Q402 507 413 499Q424 491 427.0 481.0Q430 471 419 451Q412 436 401.0 431.0Q390 426 374 430Q363 433 350.5 436.0Q338 439 321 439Q301 439 281.5 432.5Q262 426 243.5 412.5Q225 399 209.0 378.0Q193 357 180 329V11Q180 -2 169.0 -8.5Q158 -15 136 -15Z" transform="translate(557.1360000000001, 72) scale(0.072, -0.072)" /><path d="M269 -17Q211 -17 172.0 3.5Q133 24 113.5 64.5Q94 105 94 166V489Q94 502 104.5 508.5Q115 515 136 515Q158 515 169.0 508.5Q180 502 180 489V166Q180 131 191.0 107.0Q202 83 224.5 71.0Q247 59 280 59Q308 59 332.0 68.0Q356 77 375.5 92.5Q395 108 410.0 130.0Q425 152 435 177V489Q435 502 445.5 508.5Q456 515 478 515Q499 515 510.0 508.5Q521 502 521 489V96Q521 82 525.0 73.0Q529 64 536.5 60.0Q544 56 553 56Q562 56 569.5 59.5Q577 63 584.5 69.0Q592 75 599 80Q607 86 616.5 83.0Q626 80 634 69Q639 62 641.0 52.0Q643 42 636 33Q626 18 610.0 6.5Q594 -5 575.0 -12.0Q556 -19 536 -19Q512 -19 494.5 -12.5Q477 -6 465.0 6.0Q453 18 446.0 34.0Q439 50 437 69L436 78Q422 56 404.5 38.5Q387 21 366.0 8.5Q345 -4 320.5 -10.5Q296 -17 269 -17Z" transform="translate(589.176, 72) scale(0.072, -0.072)" /><path d="M539 -17Q513 -17 494.0 -10.0Q475 -3 463.0 10.0Q451 23 445.5 42.5Q440 62 440 86V326Q440 361 429.5 386.5Q419 412 397.0 425.5Q375 439 338 439Q316 439 294.0 433.0Q272 427 251.0 414.0Q230 401 212.0 379.0Q194 357 180 325V11Q180 -2 169.0 -8.5Q158 -15 136 -15Q115 -15 104.5 -8.5Q94 -2 94 11V489Q94 502 104.5 508.5Q115 515 136 515Q158 515 169.0 508.5Q180 502 180 489V424Q195 445 213.0 462.5Q231 480 253.0 492.5Q275 505 299.0 512.0Q323 519 350 519Q402 519 441.5 500.0Q481 481 503.5 440.5Q526 400 526 334V96Q526 83 530.0 74.5Q534 66 541.5 62.0Q549 58 558 58Q567 58 574.5 61.0Q582 64 589.0 69.5Q596 75 603 80Q611 86 621.0 82.0Q631 78 638 70Q646 60 646.5 50.0Q647 40 641 31Q630 16 613.5 5.0Q597 -6 578.0 -11.5Q559 -17 539 -17Z" transform="translate(635.616, 72) scale(0.072, -0.072)" /><path d="M258 -17Q201 -17 157.0 10.5Q113 38 88.0 94.0Q63 150 63 235Q63 287 73.0 331.0Q83 375 101.5 410.0Q120 445 147.5 469.0Q175 493 211.0 506.0Q247 519 290 519Q320 519 354.0 510.0Q388 501 418 484V909Q418 922 429.0 928.5Q440 935 461 935Q483 935 493.5 928.5Q504 922 504 909V96Q504 76 512.5 67.0Q521 58 535 58Q544 58 551.5 61.0Q559 64 566.0 69.0Q573 74 581 80Q589 86 598.5 82.0Q608 78 615 70Q623 61 624.5 51.0Q626 41 620 33Q609 17 592.0 6.0Q575 -5 555.5 -11.0Q536 -17 516 -17Q478 -17 457.0 -3.0Q436 11 427.5 31.5Q419 52 419 73Q419 74 419.0 74.5Q419 75 419 76Q395 38 367.5 18.0Q340 -2 312.0 -9.5Q284 -17 258 -17ZM151 239Q151 184 164.0 144.5Q177 105 203.5 84.0Q230 63 270 63Q299 63 325.5 73.0Q352 83 375.5 106.0Q399 129 418 166V404Q387 424 357.0 432.0Q327 440 295 440Q269 440 247.0 432.0Q225 424 207.0 408.0Q189 392 176.5 368.0Q164 344 157.5 312.0Q151 280 151 239Z" transform="translate(682.1279999999999, 72) scale(0.072, -0.072)" /></g></svg>
